source/images/icons/github.svg

<svg height="40" viewBox="0 0 40 40" width="40" xmlns="http://www.w3.org/2000/svg"><path d="m19.9982504 1c-10.4905614 0-18.9982504 8.50652261-18.9982504 19.0005832 0 8.3945486 5.44356794 15.5153933 12.9936462 18.0278093.9506124.1749594 1.2970318-.4117376 1.2970318-.9156205 0-.4502286-.0163295-1.6457841-.0256607-3.2309156-5.28493811 1.1477332-6.40001224-2.5474078-6.40001224-2.5474078-.86429908-2.1951564-2.11000951-2.7795206-2.11000951-2.7795206-1.72509899-1.1780595.1306363-1.1547316.1306363-1.1547316 1.90705669.1341355 2.91015685 1.9583781 2.91015685 1.9583781 1.6947727 2.9031585 4.4474662 2.0645201 5.5298812 1.5781332.1726265-1.2270481.6636791-2.0645201 1.206053-2.5392431-4.2188526-.4793885-8.65465485-2.1100095-8.65465485-9.3906504 0-2.0738512.74066116-3.7709567 1.95604531-5.0983149-.19595445-.4805549-.84796956-2.4132723.18662324-5.02833109 0 0 1.5944627-.51088125 5.2242856 1.94788049 1.5151478-.4222351 3.1411032-.6321863 4.756561-.6403511 1.6142914.0081648 3.2390804.218116 4.756561.6403511 3.6274901-2.45876174 5.21962-1.94788049 5.21962-1.94788049 1.0369256 2.61505879.3849105 4.54777619.1901224 5.02833109 1.217717 1.3273582 1.9525462 3.0244637 1.9525462 5.0983149 0 7.2993032-4.4428006 8.9054299-8.6744836 9.3754873.681175.5866969 1.2888671 1.7460941 1.2888671 3.5190153 0 2.5392431-.0233279 4.5886-.0233279 5.2114552 0 .5085485.3429202 1.099911 1.3063629.9144541 7.5442463-2.5182479 12.9831487-9.6344271 12.9831487-18.0266429 0-10.49406059-8.507689-19.0005832-19.0017496-19.0005832" fill="#fff" fill-rule="evenodd"/></svg>

<svg width="40px" height="40px" viewBox="0 0 40 40" version="1.1" xmlns="http://www.w3.org/2000/svg" xmlns:xlink="http://www.w3.org/1999/xlink">
  <g id="github" stroke="none" stroke-width="1" fill="none" fill-rule="evenodd">
    <path d="M19.9982504,1 C9.507689,1 1,9.50652261 1,20.0005832 C1,28.3951318 6.44356794,35.5159765 13.9936462,38.0283925 C14.9442586,38.2033519 15.290678,37.6166549 15.290678,37.112772 C15.290678,36.6625434 15.2743485,35.4669879 15.2650173,33.8818564 C9.98007919,35.0295896 8.86500506,31.3344486 8.86500506,31.3344486 C8.00070598,29.1392922 6.75499555,28.554928 6.75499555,28.554928 C5.02989656,27.3768685 6.88563185,27.4001964 6.88563185,27.4001964 C8.79268854,27.5343319 9.7957887,29.3585745 9.7957887,29.3585745 C11.4905614,32.261733 14.2432549,31.4230946 15.3256699,30.9367077 C15.4982964,29.7096596 15.989349,28.8721876 16.5317229,28.3974646 C12.3128703,27.9180761 7.87706805,26.2874551 7.87706805,19.0068142 C7.87706805,16.932963 8.61772921,15.2358575 9.83311336,13.9084993 C9.63715891,13.4279444 8.9851438,11.495227 10.0197366,8.88016821 C10.0197366,8.88016821 11.6141993,8.36928696 15.2440222,10.8280487 C16.75917,10.4058136 18.3851254,10.1958624 20.0005832,10.1876976 C21.6148746,10.1958624 23.2396636,10.4058136 24.7571442,10.8280487 C28.3846343,8.36928696 29.9767642,8.88016821 29.9767642,8.88016821 C31.0136898,11.495227 30.3616747,13.4279444 30.1668866,13.9084993 C31.3846036,15.2358575 32.1194328,16.932963 32.1194328,19.0068142 C32.1194328,26.3061174 27.6766322,27.9122441 23.4449492,28.3823015 C24.1261242,28.9689984 24.7338163,30.1283956 24.7338163,31.9013168 C24.7338163,34.4405599 24.7104884,36.4899168 24.7104884,37.112772 C24.7104884,37.6213205 25.0534086,38.212683 26.0168513,38.0272261 C33.5610976,35.5089782 39,28.392799 39,20.0005832 C39,9.50652261 30.492311,1 19.9982504,1" fill="#FFFFFF"></path>
  </g>
</svg>
